apps/32/preferences-system-login.svg

<?xml version="1.0" encoding="UTF-8" standalone="no"?>
<!-- Created with Inkscape (http://www.inkscape.org/) -->

<svg
   width="32"
   height="32"
   version="1.1"
   viewBox="0 0 32 32"
   id="svg22"
   xmlns:xlink="http://www.w3.org/1999/xlink"
   xmlns="http://www.w3.org/2000/svg"
   xmlns:svg="http://www.w3.org/2000/svg">
  <defs
     id="defs12">
    <linearGradient
       xlink:href="#linearGradient3487"
       id="linearGradient3403"
       gradientUnits="userSpaceOnUse"
       x1="6.9491749"
       y1="4.5549412"
       x2="11.215498"
       y2="59.052471" />
    <linearGradient
       id="linearGradient3487">
      <stop
         style="stop-color:#32373c;stop-opacity:1"
         offset="0"
         id="stop3481" />
      <stop
         id="stop3483"
         offset="0.36804965"
         style="stop-color:#1a1a1a;stop-opacity:1" />
      <stop
         style="stop-color:#31363b;stop-opacity:1"
         offset="1"
         id="stop3485" />
    </linearGradient>
    <linearGradient
       xlink:href="#linearGradient20604"
       id="linearGradient20558"
       gradientUnits="userSpaceOnUse"
       x1="25.802212"
       y1="20.373846"
       x2="25.111048"
       y2="58.912758" />
    <linearGradient
       id="linearGradient20604">
      <stop
         id="stop20598"
         offset="0"
         style="stop-color:#3d3d3d;stop-opacity:1" />
      <stop
         style="stop-color:#000000;stop-opacity:1"
         offset="0.61772454"
         id="stop20600" />
      <stop
         id="stop20602"
         offset="1"
         style="stop-color:#3d3d3d;stop-opacity:1" />
    </linearGradient>
    <filter
       style="color-interpolation-filters:sRGB"
       id="filter20720"
       x="-0.017024755"
       y="-0.016457183"
       width="1.0340491"
       height="1.0329144">
      <feGaussianBlur
         stdDeviation="0.14745661"
         id="feGaussianBlur20722" />
    </filter>
    <linearGradient
       gradientTransform="translate(0.36067797,-0.13016949)"
       xlink:href="#linearGradient4555"
       id="linearGradient4557"
       x1="43.499737"
       y1="64.011795"
       x2="44.141731"
       y2="0.30621234"
       gradientUnits="userSpaceOnUse" />
    <linearGradient
       id="linearGradient4555">
      <stop
         style="stop-color:#141618;stop-opacity:1"
         offset="0"
         id="stop4551" />
      <stop
         id="stop4559"
         offset="0.51820582"
         style="stop-color:#686868;stop-opacity:1" />
      <stop
         style="stop-color:#31363b;stop-opacity:1"
         offset="1"
         id="stop4553" />
    </linearGradient>
    <filter
       style="color-interpolation-filters:sRGB"
       id="filter4601"
       x="-0.030244955"
       width="1.0604899"
       y="-0.030100647"
       height="1.0602013">
      <feGaussianBlur
         stdDeviation="0.014790289"
         id="feGaussianBlur4603" />
    </filter>
    <linearGradient
       id="j"
       y1="536.79999"
       y2="503.79999"
       x2="0"
       gradientUnits="userSpaceOnUse"
       gradientTransform="translate(-384.57,-499.8)">
      <stop
         stop-color="#2a2c2f"
         id="stop32" />
      <stop
         offset="1"
         stop-color="#424649"
         id="stop34" />
    </linearGradient>
    <linearGradient
       xlink:href="#h"
       id="k"
       x1="2.0039999"
       y1="35.998001"
       x2="2"
       y2="6"
       gradientUnits="userSpaceOnUse" />
    <linearGradient
       id="h">
      <stop
         stop-color="#39a1d8"
         id="stop47" />
      <stop
         offset="1"
         stop-color="#4db4e8"
         id="stop49" />
    </linearGradient>
    <linearGradient
       xlink:href="#b"
       id="l"
       y1="524.79797"
       y2="522.79797"
       x2="0"
       gradientUnits="userSpaceOnUse"
       gradientTransform="matrix(1.42857,0,0,1.33333,-548.244,-679.73)" />
    <linearGradient
       id="b">
      <stop
         stop-color="#c6cdd1"
         id="stop22" />
      <stop
         offset="1"
         stop-color="#e0e5e7"
         id="stop24" />
    </linearGradient>
    <linearGradient
       xlink:href="#e"
       id="m"
       y1="5"
       x1="9"
       y2="19"
       x2="23"
       gradientUnits="userSpaceOnUse"
       gradientTransform="matrix(1.5,0,0,1.5,0,6.5)" />
    <linearGradient
       id="e">
      <stop
         stop-color="#383e51"
         id="stop17" />
      <stop
         offset="1"
         stop-color="#655c6f"
         stop-opacity="0"
         id="stop19" />
    </linearGradient>
    <linearGradient
       xlink:href="#b"
       id="n"
       y1="524.79797"
       y2="522.79797"
       gradientUnits="userSpaceOnUse"
       x2="0"
       gradientTransform="matrix(1.42857,0,0,1.33333,-548.244,-679.064)" />
  </defs>
  <g
     id="g1172"
     transform="matrix(0.58601081,0,0,0.80444006,2.4119884,-1.7600722)">
    <rect
       height="36"
       y="4"
       width="48"
       ry="5"
       rx="5"
       id="rect60"
       style="fill:url(#j)"
       x="0" />
    <path
       d="m 5.004,6.002 a 2.987,2.987 0 0 0 -3,2.988 V 35.998 H 45.998 V 8.982 A 2.985,2.985 0 0 0 45.128,6.877 3.003,3.003 0 0 0 43.004,6.002 Z"
       id="path64"
       style="fill:url(#k)" />
    <path
       d="M 14,20 H 34 V 16 H 14 Z"
       id="path66"
       style="fill:url(#l)" />
    <path
       d="M 24,36 46,34 V 28 L 34,16 v 4 H 13.5 l 6,6 H 14 Z"
       id="path68"
       style="fill:url(#m);fill-rule:evenodd" />
    <path
       d="M 14,26 H 34 V 22 H 14 Z"
       id="path70"
       style="fill:url(#n)" />
    <ellipse
       cx="16"
       cy="17.747875"
       id="circle72"
       style="fill:#4d4d4d;stroke-width:0.864798;paint-order:stroke fill markers"
       rx="1"
       ry="0.74787527" />
    <ellipse
       cx="16"
       cy="23.691763"
       id="circle74"
       style="fill:#4d4d4d;stroke-width:0.831722;paint-order:stroke fill markers"
       rx="1"
       ry="0.69176209" />
    <ellipse
       cx="20"
       cy="23.691763"
       id="circle76"
       style="fill:#4d4d4d;stroke-width:0.831722;paint-order:stroke fill markers"
       rx="1"
       ry="0.69176209" />
    <ellipse
       cx="24"
       cy="23.691763"
       id="circle78"
       style="fill:#4d4d4d;stroke-width:0.831722;paint-order:stroke fill markers"
       rx="1"
       ry="0.69176209" />
  </g>
  <path
     style="display:inline;mix-blend-mode:normal;fill:url(#linearGradient3403);fill-opacity:1;stroke:url(#linearGradient20558);stroke-width:1.16242;stroke-linecap:butt;stroke-linejoin:round;stroke-miterlimit:4;stroke-dasharray:none;stroke-opacity:1;filter:url(#filter20720)"
     d="M 4.7043071,3.9814882 4.6913695,60.80196 H 58.59546 l 1.022155,-2.866369 c 0,0 -23.87537,0.766388 -32.844441,-4.140386 C 16.257548,48.042344 11.401114,4.0978197 11.401114,4.0978197 Z"
     id="path1686"
     transform="matrix(0.5,0,0,0.5,0.06630362,0.01654936)" />
  <rect
     style="display:inline;fill:none;fill-opacity:1;stroke:url(#linearGradient4557);stroke-width:3.71366;stroke-linejoin:round;stroke-miterlimit:7.8;stroke-dasharray:none;stroke-opacity:0.995146;filter:url(#filter4601)"
     id="rect4539"
     width="62.566689"
     height="62.866646"
     x="1.0323594"
     y="0.59551275"
     ry="6.2447233"
     rx="5.8029528"
     transform="matrix(0.46839137,0,0,0.46743669,0.90638486,1.0268972)" />
</svg>

<svg width="32" height="32" version="1.1" viewBox="0 0 32 32" xmlns="http://www.w3.org/2000/svg" xmlns:xlink="http://www.w3.org/1999/xlink">
<defs>
<linearGradient id="linearGradient3403" x1="6.9492" x2="11.215" y1="4.5549" y2="59.052" gradientUnits="userSpaceOnUse">
<stop style="stop-color:#32373c" offset="0"/>
<stop style="stop-color:#1a1a1a" offset=".36805"/>
<stop style="stop-color:#31363b" offset="1"/>
</linearGradient>
<linearGradient id="linearGradient20558" x1="25.802" x2="25.111" y1="20.374" y2="58.913" gradientUnits="userSpaceOnUse">
<stop style="stop-color:#3d3d3d" offset="0"/>
<stop offset=".61772"/>
<stop style="stop-color:#3d3d3d" offset="1"/>
</linearGradient>
<linearGradient id="linearGradient4557" x1="43.5" x2="44.142" y1="64.012" y2=".30621" gradientTransform="translate(.36068 -.13017)" gradientUnits="userSpaceOnUse">
<stop style="stop-color:#141618" offset="0"/>
<stop style="stop-color:#686868" offset=".51821"/>
<stop style="stop-color:#31363b" offset="1"/>
</linearGradient>
<linearGradient id="j" x2="0" y1="536.8" y2="503.8" gradientTransform="translate(-384.57,-499.8)" gradientUnits="userSpaceOnUse">
<stop stop-color="#2a2c2f" offset="0"/>
<stop stop-color="#424649" offset="1"/>
</linearGradient>
<linearGradient id="k" x1="2.004" x2="2" y1="35.998" y2="6" gradientUnits="userSpaceOnUse">
<stop stop-color="#39a1d8" offset="0"/>
<stop stop-color="#4db4e8" offset="1"/>
</linearGradient>
<linearGradient id="l" x2="0" y1="524.8" y2="522.8" gradientTransform="matrix(1.4286 0 0 1.3333 -548.24 -679.73)" gradientUnits="userSpaceOnUse" xlink:href="#b"/>
<linearGradient id="b">
<stop stop-color="#c6cdd1" offset="0"/>
<stop stop-color="#e0e5e7" offset="1"/>
</linearGradient>
<linearGradient id="m" x1="9" x2="23" y1="5" y2="19" gradientTransform="matrix(1.5,0,0,1.5,0,6.5)" gradientUnits="userSpaceOnUse">
<stop stop-color="#383e51" offset="0"/>
<stop stop-color="#655c6f" stop-opacity="0" offset="1"/>
</linearGradient>
<linearGradient id="n" x2="0" y1="524.8" y2="522.8" gradientTransform="matrix(1.4286 0 0 1.3333 -548.24 -679.06)" gradientUnits="userSpaceOnUse" xlink:href="#b"/>
</defs>
<g transform="matrix(.58601 0 0 .80444 2.412 -1.7601)">
<rect y="4" width="48" height="36" rx="5" ry="5" style="fill:url(#j)"/>
<path d="m5.004 6.002a2.987 2.987 0 0 0-3 2.988v27.008h43.994v-27.016a2.985 2.985 0 0 0-0.87-2.105 3.003 3.003 0 0 0-2.124-0.875z" style="fill:url(#k)"/>
<path d="m14 20h20v-4h-20z" style="fill:url(#l)"/>
<path d="m24 36 22-2v-6l-12-12v4h-20.5l6 6h-5.5z" style="fill-rule:evenodd;fill:url(#m)"/>
<path d="m14 26h20v-4h-20z" style="fill:url(#n)"/>
<ellipse cx="16" cy="17.748" rx="1" ry=".74788" style="fill:#4d4d4d;paint-order:stroke fill markers;stroke-width:.8648"/>
<ellipse cx="16" cy="23.692" rx="1" ry=".69176" style="fill:#4d4d4d;paint-order:stroke fill markers;stroke-width:.83172"/>
<ellipse cx="20" cy="23.692" rx="1" ry=".69176" style="fill:#4d4d4d;paint-order:stroke fill markers;stroke-width:.83172"/>
<ellipse cx="24" cy="23.692" rx="1" ry=".69176" style="fill:#4d4d4d;paint-order:stroke fill markers;stroke-width:.83172"/>
</g>
<path transform="matrix(.5 0 0 .5 .066304 .016549)" d="m4.7043 3.9815-0.012938 56.82h53.904l1.0222-2.8664s-23.875 0.76639-32.844-4.1404c-10.516-5.7529-15.372-49.697-15.372-49.697z" style="fill:url(#linearGradient3403);mix-blend-mode:normal;stroke-linejoin:round;stroke-width:1.1624;stroke:url(#linearGradient20558)"/>
<rect transform="matrix(.46839 0 0 .46744 .90638 1.0269)" x="1.0324" y=".59551" width="62.567" height="62.867" rx="5.803" ry="6.2447" style="fill:none;stroke-linejoin:round;stroke-miterlimit:7.8;stroke-opacity:.99515;stroke-width:3.7137;stroke:url(#linearGradient4557)"/>
</svg>
